favicon.svg

<svg width="32" height="32" viewBox="0 0 32 32" fill="none" xmlns="http://www.w3.org/2000/svg">
<circle cx="16" cy="16" r="16" fill="white"/>
<path d="M23.5833 12.8333H22.695L20.8533 7.76333C20.7009 7.34527 20.4239 6.98403 20.0597 6.72833C19.6955 6.47263 19.2617 6.33476 18.8167 6.33333H17.0833C16.4875 6.33333 16 6.82083 16 7.41666C16 8.01249 16.4875 8.49999 17.0833 8.49999H18.8167L20.3983 12.8333H15.1875L14.7975 11.75H14.895C15.4908 11.75 15.9783 11.2625 15.9783 10.6667C15.9783 10.0708 15.4908 9.58333 14.895 9.58333H11.6667C11.0708 9.58333 10.5833 10.0708 10.5833 10.6667C10.5833 11.2625 11.0708 11.75 11.6667 11.75H12.4792L14.4508 17.1667H13.725C13.2483 14.7508 11.2225 12.9633 8.6875 12.8442C5.65417 12.6925 3 15.2167 3 18.25C3 21.2833 5.38333 23.6667 8.41667 23.6667C11.0817 23.6667 13.2375 21.8358 13.725 19.3333H18.275C18.7517 21.7492 20.7775 23.5367 23.3125 23.6558C26.3458 23.7967 29 21.2833 29 18.2392C29 15.2167 26.6167 12.8333 23.5833 12.8333ZM9.5 19.3333H11.4717C11.0167 20.6658 9.73833 21.5867 8.2 21.4892C6.58583 21.3917 5.2425 20.0267 5.16667 18.4017C5.09083 16.5058 6.5425 15 8.41667 15C9.8575 15 11.0383 15.8992 11.4717 17.1667H9.5C8.90417 17.1667 8.41667 17.6542 8.41667 18.25C8.41667 18.8458 8.90417 19.3333 9.5 19.3333ZM18.275 17.1667H16.7583L15.9675 15H19.25C18.7733 15.6283 18.4267 16.3542 18.275 17.1667ZM23.4533 21.5C21.785 21.435 20.3767 20.0158 20.3333 18.3367C20.3117 17.2967 20.7558 16.3867 21.4708 15.78L22.1425 17.6217C22.3483 18.185 22.9658 18.4775 23.5292 18.2717C24.0925 18.0658 24.385 17.4483 24.1792 16.885L23.4967 15.0108L23.5075 15C23.9418 14.9852 24.3747 15.0585 24.7799 15.2157C25.1851 15.3728 25.5543 15.6104 25.8651 15.9141C26.1759 16.2179 26.422 16.5814 26.5884 16.9829C26.7548 17.3844 26.8381 17.8154 26.8333 18.25C26.8333 20.1133 25.3383 21.565 23.4533 21.5Z" fill="url(#paint0_linear_44:180)"/>
<defs>
<linearGradient id="paint0_linear_44:180" x1="16" y1="6.33333" x2="16" y2="23.6667" gradientUnits="userSpaceOnUse">
<stop stop-color="#FFB60D"/>
<stop offset="1" stop-color="#E59317"/>
</linearGradient>
</defs>
</svg>

<svg width="32" height="32" fill="none" xmlns="http://www.w3.org/2000/svg"><circle cx="16" cy="16" r="16" fill="#fff"/><path d="M23.583 12.833h-.888l-1.842-5.07a2.175 2.175 0 0 0-2.036-1.43h-1.734c-.595 0-1.083.488-1.083 1.084 0 .595.488 1.083 1.083 1.083h1.734l1.581 4.333h-5.21l-.39-1.083h.097c.596 0 1.083-.488 1.083-1.083 0-.596-.487-1.084-1.083-1.084h-3.228c-.596 0-1.084.488-1.084 1.084 0 .595.488 1.083 1.084 1.083h.812l1.972 5.417h-.726c-.477-2.416-2.502-4.204-5.037-4.323C5.654 12.693 3 15.217 3 18.25c0 3.033 2.383 5.417 5.417 5.417 2.665 0 4.82-1.831 5.308-4.334h4.55c.477 2.416 2.503 4.204 5.038 4.323 3.033.14 5.687-2.373 5.687-5.417 0-3.022-2.383-5.406-5.417-5.406ZM9.5 19.333h1.972c-.455 1.333-1.734 2.254-3.272 2.156-1.614-.097-2.957-1.462-3.033-3.087C5.09 16.506 6.543 15 8.417 15c1.44 0 2.621.9 3.055 2.167H9.5c-.596 0-1.083.487-1.083 1.083s.487 1.083 1.083 1.083Zm8.775-2.166h-1.517L15.968 15h3.282a5.128 5.128 0 0 0-.975 2.167Zm5.178 4.333c-1.668-.065-3.076-1.484-3.12-3.163a3.231 3.231 0 0 1 1.138-2.557l.671 1.842a1.08 1.08 0 0 0 1.387.65 1.08 1.08 0 0 0 .65-1.387l-.682-1.874.01-.011a3.215 3.215 0 0 1 3.326 3.25c0 1.863-1.495 3.315-3.38 3.25Z" fill="url(#a)"/><defs><linearGradient id="a" x1="16" y1="6.333" x2="16" y2="23.667" gradientUnits="userSpaceOnUse"><stop stop-color="#FFB60D"/><stop offset="1" stop-color="#E59317"/></linearGradient></defs></svg>
